X:47
M:4/4
L:1/4
K:C
A2 | G A c d | c B A3/2 A/ | F G A G/F/ | E !fermata!D A2 | G A c d | c B A3/2 A/ | F G A G/F/ | E !fermata!D D F | G D F G | A3/2 A/ d c | d e c B | A3/2 !sintro!A/ c A | c G (F/D/ E) | D2 A G/F/ | E !fermata!D !eintro!|]
